svgs/duotone/grid-horizontal.svg

<svg xmlns="http://www.w3.org/2000/svg" viewBox="0 0 448 512"><!--! Font Awesome Pro 6.6.0 by @fontawesome - https://fontawesome.com License - https://fontawesome.com/license (Commercial License) Copyright 2024 Fonticons, Inc. --><defs><style>.fa-secondary{opacity:.4}</style></defs><path class="fa-secondary" d="M0 328c0-22.1 17.9-40 40-40l48 0c22.1 0 40 17.9 40 40l0 48c0 22.1-17.9 40-40 40l-48 0c-22.1 0-40-17.9-40-40l0-48zM160 168c0-22.1 17.9-40 40-40l48 0c22.1 0 40 17.9 40 40l0 48c0 22.1-17.9 40-40 40l-48 0c-22.1 0-40-17.9-40-40l0-48zM320 328c0-22.1 17.9-40 40-40l48 0c22.1 0 40 17.9 40 40l0 48c0 22.1-17.9 40-40 40l-48 0c-22.1 0-40-17.9-40-40l0-48z"/><path class="fa-primary" d="M0 168c0-22.1 17.9-40 40-40l48 0c22.1 0 40 17.9 40 40l0 48c0 22.1-17.9 40-40 40l-48 0c-22.1 0-40-17.9-40-40l0-48zM160 328c0-22.1 17.9-40 40-40l48 0c22.1 0 40 17.9 40 40l0 48c0 22.1-17.9 40-40 40l-48 0c-22.1 0-40-17.9-40-40l0-48zM448 168l0 48c0 22.1-17.9 40-40 40l-48 0c-22.1 0-40-17.9-40-40l0-48c0-22.1 17.9-40 40-40l48 0c22.1 0 40 17.9 40 40z"/></svg>

<svg xmlns="http://www.w3.org/2000/svg" viewBox="0 0 448 512"><!--! Font Awesome Pro 6.4.0 by @fontawesome - https://fontawesome.com License - https://fontawesome.com/license (Commercial License) Copyright 2023 Fonticons, Inc. --><defs><style>.fa-secondary{opacity:.4}</style></defs><path class="fa-primary" d="M0 168c0-22.1 17.9-40 40-40H88c22.1 0 40 17.9 40 40v48c0 22.1-17.9 40-40 40H40c-22.1 0-40-17.9-40-40V168zM160 328c0-22.1 17.9-40 40-40h48c22.1 0 40 17.9 40 40v48c0 22.1-17.9 40-40 40H200c-22.1 0-40-17.9-40-40V328zM448 168v48c0 22.1-17.9 40-40 40H360c-22.1 0-40-17.9-40-40V168c0-22.1 17.9-40 40-40h48c22.1 0 40 17.9 40 40z"/><path class="fa-secondary" d="M160 168c0-22.1 17.9-40 40-40h48c22.1 0 40 17.9 40 40v48c0 22.1-17.9 40-40 40H200c-22.1 0-40-17.9-40-40V168zM0 328c0-22.1 17.9-40 40-40H88c22.1 0 40 17.9 40 40v48c0 22.1-17.9 40-40 40H40c-22.1 0-40-17.9-40-40V328zm360-40h48c22.1 0 40 17.9 40 40v48c0 22.1-17.9 40-40 40H360c-22.1 0-40-17.9-40-40V328c0-22.1 17.9-40 40-40z"/></svg>
